static/img/bug.svg

<svg viewBox="0 0 100 100" xmlns="http://www.w3.org/2000/svg"><g fill="#430632"><path d="m84.8 14.59h-69.6a6.26 6.26 0 0 0 -6.2 6.26v45.15a6.25 6.25 0 0 0 6.25 6.25h27.05l-2.87 10.06h-11.06a1.55 1.55 0 0 0 0 3.1h43.26a1.55 1.55 0 1 0 0-3.1h-11.06l-2.87-10.07h27.1a6.25 6.25 0 0 0 6.25-6.24v-45.15a6.26 6.26 0 0 0 -6.25-6.26zm-42.15 67.72 2.87-10.07h9l2.87 10.07zm45.35-16.31a3.15 3.15 0 0 1 -3.15 3.15h-69.65a3.15 3.15 0 0 1 -3.15-3.15v-45.15a3.16 3.16 0 0 1 3.15-3.16h69.6a3.16 3.16 0 0 1 3.2 3.16z"/><path d="m68.55 47.09h-5.41a17.81 17.81 0 0 0 -1.07-6.09l4.19-3.34a1.48 1.48 0 0 0 .56-1 1.5 1.5 0 0 0 -.32-1.13 1.56 1.56 0 0 0 -2.19-.26l-3.61 2.87a14.19 14.19 0 0 0 -2.3-2.92 7.51 7.51 0 0 0 .1-1.22 8.5 8.5 0 0 0 -17 0 7.51 7.51 0 0 0 .1 1.27 14.26 14.26 0 0 0 -2.6 3.49l-3.94-2.76a1.51 1.51 0 0 0 -1.15-.27 1.55 1.55 0 0 0 -.66 2.79l4.45 3.22a17.61 17.61 0 0 0 -.84 5.4h-5.41a1.55 1.55 0 0 0 0 3.1h5.67a17.2 17.2 0 0 0 1.88 5.21l-5.26 4.15a1.55 1.55 0 0 0 1.94 2.4l5-4a11.83 11.83 0 0 0 19-.49l5.24 3.78a1.59 1.59 0 0 0 2.19-.29 1.55 1.55 0 0 0 -.36-2.17l-5.41-3.9a16.69 16.69 0 0 0 1.54-4.71h5.67a1.55 1.55 0 0 0 0-3.1zm-18.55-18.54a5.43 5.43 0 0 1 5.31 4.45l-.49-.25a12.72 12.72 0 0 0 -1.49-.57l-.74-.2h-.09c-.25-.06-.5-.1-.76-.14a7.71 7.71 0 0 0 -.84-.1 12.06 12.06 0 0 0 -1.7 0 7.71 7.71 0 0 0 -.84.1l-.78.14h-.12l-.74.2a12.67 12.67 0 0 0 -1.51.58l-.47.24a5.43 5.43 0 0 1 5.26-4.45zm0 30.9c-5.54 0-10-5.54-10-12.36a13.42 13.42 0 0 1 4.3-10.16 8.74 8.74 0 0 1 5.7-2.2 8.22 8.22 0 0 1 3.7.88 8.75 8.75 0 0 1 1.35.81c.13.1.27.2.4.32l.25.2a13.38 13.38 0 0 1 4.3 10.15c0 6.82-4.46 12.36-10 12.36z"/></g></svg>

<svg id="Layer_1" data-name="Layer 1" xmlns="http://www.w3.org/2000/svg" viewBox="0 0 100 100"><title>bug</title><path d="M84.8,14.59H15.2A6.26,6.26,0,0,0,9,20.85V66a6.25,6.25,0,0,0,6.25,6.25H42.3L39.43,82.31H28.37a1.55,1.55,0,0,0,0,3.1H71.63a1.55,1.55,0,1,0,0-3.1H60.57L57.7,72.24H84.8A6.25,6.25,0,0,0,91.05,66V20.85A6.26,6.26,0,0,0,84.8,14.59ZM42.65,82.31l2.87-10.07h9l2.87,10.07ZM88,66a3.15,3.15,0,0,1-3.15,3.15H15.2A3.15,3.15,0,0,1,12.05,66V20.85a3.16,3.16,0,0,1,3.15-3.16H84.8A3.16,3.16,0,0,1,88,20.85Z" fill="#430632"/><path d="M68.55,47.09H63.14A17.81,17.81,0,0,0,62.07,41l4.19-3.34a1.48,1.48,0,0,0,.56-1,1.5,1.5,0,0,0-.32-1.13,1.56,1.56,0,0,0-2.19-.26L60.7,38.14a14.19,14.19,0,0,0-2.3-2.92A7.51,7.51,0,0,0,58.5,34a8.5,8.5,0,0,0-17,0,7.51,7.51,0,0,0,.1,1.27A14.26,14.26,0,0,0,39,38.76L35.06,36a1.51,1.51,0,0,0-1.15-.27,1.55,1.55,0,0,0-.66,2.79l4.45,3.22a17.61,17.61,0,0,0-.84,5.4H31.45a1.55,1.55,0,0,0,0,3.1h5.67A17.2,17.2,0,0,0,39,55.45L33.74,59.6A1.55,1.55,0,0,0,35.68,62l5-4a11.83,11.83,0,0,0,19-.49l5.24,3.78A1.59,1.59,0,0,0,67.11,61a1.55,1.55,0,0,0-.36-2.17l-5.41-3.9a16.69,16.69,0,0,0,1.54-4.71h5.67a1.55,1.55,0,0,0,0-3.1ZM50,28.55A5.43,5.43,0,0,1,55.31,33l-.49-.25a12.72,12.72,0,0,0-1.49-.57l-.74-.2-.09,0h0c-.25-.06-.5-.1-.76-.14a7.71,7.71,0,0,0-.84-.1,12.06,12.06,0,0,0-1.7,0,7.71,7.71,0,0,0-.84.1l-.78.14-.12,0-.74.2a12.67,12.67,0,0,0-1.51.58l-.47.24A5.43,5.43,0,0,1,50,28.55Zm0,30.9c-5.54,0-10-5.54-10-12.36A13.42,13.42,0,0,1,44.3,36.93a8.74,8.74,0,0,1,5.7-2.2,8.22,8.22,0,0,1,3.7.88,8.75,8.75,0,0,1,1.35.81c.13.1.27.2.4.32l.25.2A13.38,13.38,0,0,1,60,47.09C60,53.91,55.54,59.45,50,59.45Z" fill="#430632"/></svg>
